X:1095
T:Wild Rover, The
C:Joe Buchanan's Scottish Tome - Page 626.1
I:626 1
Z:Carl Allison
R:Folk
L:1/4
M:3/4
K:G
A | "G"G>A G | E D B | B A B | "C"c2 (B/c/) | "G"d>B d | "D7"c A F | D B A | "G"G2 G |
G>A G | E D B | B A B | "C"c2 (B/c/) | "G"d>B d | "D7"c A F | D B A | "G"G F G |
"D"A3 | A3 | F D2- | D3 | "G"D B B | B A B | "C"c3- | c B c |
"G"d3- | d B G | "C"F E2- | E E/E/ | "G"D !fermata!B A | G3- | G3 | x3 |]

